public/images/icons/facebook.svg

<svg width="24" height="24" viewBox="0 0 24 24" fill="none" xmlns="http://www.w3.org/2000/svg">
<path fill-rule="evenodd" clip-rule="evenodd" d="M16.47 24V14.706H19.59L20.0568 11.0844H16.4688V8.772C16.4688 7.7232 16.7604 7.008 18.2652 7.008H20.1828V3.768C19.2541 3.66917 18.3207 3.6211 17.3868 3.624C14.622 3.624 12.7296 5.3124 12.7296 8.412V11.0844H9.6V14.706H12.7284V24H1.3248C0.5928 24 0 23.4072 0 22.6752V1.3248C0 0.5928 0.5928 0 1.3248 0H22.6752C23.4072 0 24 0.5928 24 1.3248V22.6752C24 23.4072 23.4072 24 22.6752 24H16.47Z" fill="white"/>
</svg>

<svg xmlns="http://www.w3.org/2000/svg" width="24" height="24" fill="none"><path fill="#fff" fill-rule="evenodd" d="M16.47 24v-9.294h3.12l.467-3.622h-3.588V8.772c0-1.049.291-1.764 1.796-1.764h1.918v-3.24a25.67 25.67 0 0 0-2.796-.144c-2.765 0-4.657 1.688-4.657 4.788v2.672H9.6v3.622h3.128V24H1.325A1.324 1.324 0 0 1 0 22.675V1.325C0 .593.593 0 1.325 0h21.35C23.407 0 24 .593 24 1.325v21.35c0 .732-.593 1.325-1.325 1.325H16.47Z" clip-rule="evenodd"/></svg>
